packages/icons/svg/Outline/corner-down-right.svg

<svg width="24" height="24" viewBox="0 0 24 24" fill="none" xmlns="http://www.w3.org/2000/svg">
<g id="Icon/Outline/corner-down-right">
<path id="Mask" fill-rule="evenodd" clip-rule="evenodd" d="M19.7808 12.3755L15.7808 7.37549C15.4358 6.94349 14.8058 6.87449 14.3758 7.21949C13.9438 7.56349 13.8738 8.19349 14.2188 8.62449L16.9198 12.0005H7.99976C7.44876 12.0005 6.99976 11.5515 6.99976 11.0005V6.00049C6.99976 5.44749 6.55176 5.00049 5.99976 5.00049C5.44776 5.00049 4.99976 5.44749 4.99976 6.00049V11.0005C4.99976 12.6545 6.34576 14.0005 7.99976 14.0005H16.9198L14.2188 17.3755C13.8738 17.8065 13.9438 18.4365 14.3758 18.7805C14.5598 18.9285 14.7808 19.0005 14.9998 19.0005C15.2928 19.0005 15.5838 18.8715 15.7808 18.6245L19.7808 13.6245C20.0728 13.2595 20.0728 12.7405 19.7808 12.3755Z" fill="#000000"/>
</g>
</svg>

<svg fill="none" height="24" viewBox="0 0 24 24" width="24" xmlns="http://www.w3.org/2000/svg"><path clip-rule="evenodd" d="m19.7808 12.3755-4-5.00001c-.345-.432-.975-.501-1.405-.156-.432.344-.502.974-.157 1.405l2.701 3.37601h-8.92004c-.551 0-1-.449-1-1v-5.00001c0-.553-.448-1-1-1s-1 .447-1 1v5.00001c0 1.654 1.346 3 3 3h8.92004l-2.701 3.375c-.345.431-.275 1.061.157 1.405.184.148.405.22.624.22.293 0 .584-.129.781-.376l4-5c.292-.365.292-.884 0-1.249" fill="#6b7280" fill-rule="evenodd"/></svg>
